X:71
T:Follow me Down to Carlow (slide)  
F:file ID: jol/071follow
Z:bill@capeirish.com
B:JOL.325
Q:180
M:12/8
R:slide
K:G
"A dorian"
ABc A2G EDE GFG|A2A AGA Bcd efg|
"5"ABA A2G EDE GFG|A2A BAG A3 A3 :|
"9"e2a a2g a2b aga|dgg gfa gba ged|
"13"e2a a2g a2b aga|efg edB A3 A3 :|
"17"e2a aga e2f g2g|B3 BAB G2B d2d|
"21"e2a bag e2f gfg|a2g efg a3 a2g|
"25"e2a aga e2f g3|BcB BAB G2B d2B|
"29"cBA B2G A2G EDE|BGG dBG A2B c2B||
"final" BGG dBG A3A3-|A6z6|]

